X: 1320
T: Trim the Velvet
R:Reel
N:Collected by Ennis
B:O'Neill's 1320
Z:Transcribed by Trish O'Neil
M:C|
L:1/8
K:G
G2(BG) AGFD|G2(BG) cAFA|G2(BG) AGFD|de=fd cA^FA:|
Tdcde dBGB|dedBcAFA|Tdcde dBGB|de=fd cA^FA|
d3e dBGB|dedB cAFA|d2dfe2ef|ge=fd cA^FA|:
g2gba2af|g2(ab) c'baf|gfgb abaf|de=fd cA^FA:|
(3BAG (dG) BGGA|(3BAG (dB) cAFA|(3BAG (dG) BGGB|de=fd cA^FA|
(3BAG (dG) BGGA|(3BAG (dB) cAFA|BG (3GFG cA (3A^GA|de=fd cA^FA|]


